dist/svg/static/vehicle-wi-fi-3-small.svg

<svg xmlns="http://www.w3.org/2000/svg" width="24" height="24" viewBox="0 0 24 24"><g fill="none" stroke="currentColor" stroke-miterlimit="10"><path d="M15.2 9.4C13.9 8 11 8 9.7 9.4M18 6.6c-1.45-1.45-3.575-2.1-5.5-2.1-1.925 0-4.05.641-5.5 2.092M16.5 13.5l4 4V22c0 .4-.1 1.5-.5 1.5h-2c-.4 0-.5-1.1-.5-1.5v-.5h-10v.5c0 .4-.1 1.5-.5 1.5H5c-.4 0-.5-1.1-.5-1.5v-4.5l4-4h8z"/></g></svg>

<?xml version="1.0" encoding="UTF-8" standalone="no"?>
<svg width="24px" height="24px" viewBox="0 0 24 24" version="1.1" xmlns="http://www.w3.org/2000/svg" xmlns:xlink="http://www.w3.org/1999/xlink">
    <!-- Generator: sketchtool 46.2 (44496) - http://www.bohemiancoding.com/sketch -->
    <title>vehicle-wi-fi-3-small</title>
    <desc>Created with sketchtool.</desc>
    <defs></defs>
    <g id="icons-published" stroke="none" stroke-width="1" fill="none" fill-rule="evenodd">
        <g id="briefing" transform="translate(-932.000000, -2330.000000)"></g>
        <g id="vehicle-wi-fi-3-small" stroke="#000000">
            <path d="M16.5,13.5 L20.5,17.5 L20.5,22 C20.5,22.4 20.4,23.5 20,23.5 L18,23.5 C17.6,23.5 17.5,22.4 17.5,22 L17.5,21.5 L7.5,21.5 L7.5,22 C7.5,22.4 7.4,23.5 7,23.5 L5,23.5 C4.6,23.5 4.5,22.4 4.5,22 L4.5,17.5 L8.5,13.5 L16.5,13.5 Z" id="Shape"></path>
            <path d="M15.2,9.4 C13.9,8 11,8 9.7,9.4" id="Path"></path>
            <path d="M18,6.6 C16.5,5.1 14.4,4.5 12.5,4.5 C10.6,4.5 8.4,5.1 7,6.6" id="Path"></path>
        </g>
    </g>
</svg>
